img/med.svg

<svg width="52" height="52" viewBox="0 0 52 52" fill="none" xmlns="http://www.w3.org/2000/svg">
<circle cx="26" cy="26" r="25" fill="white" stroke="#172343" stroke-width="2"/>
<path d="M41.3958 23.1228L27.4064 14.0297C26.7579 13.6082 25.7789 13.6078 25.13 14.0297L11.1415 23.1228C10.7574 23.3724 10.5371 23.7455 10.5371 24.1464C10.5371 24.5472 10.7574 24.9203 11.1415 25.1699L16.8925 28.9082V33.5223C16.8925 35.8304 21.6093 37.0383 26.2684 37.0383C30.9279 37.0383 35.6444 35.8304 35.6444 33.5223V28.9082L38.379 27.1303V34.6377C38.2321 34.7529 38.1036 34.9107 38.004 35.1104L36.9242 37.2696C36.7171 37.6845 36.7183 38.1173 36.9285 38.4568C37.1383 38.7963 37.5247 38.9912 37.9884 38.9912H39.9417C40.4054 38.9912 40.7918 38.7963 41.0016 38.4568C41.2118 38.1173 41.2129 37.6841 41.0059 37.2696L39.9261 35.1104C39.8265 34.9107 39.6979 34.7529 39.551 34.6377V26.3688L41.3958 25.1699C41.7798 24.9203 42.0001 24.5472 42.0001 24.1464C42.0001 23.7455 41.7798 23.3724 41.3958 23.1228ZM39.9573 37.7942C39.962 37.8028 39.9655 37.8114 39.9687 37.8189C39.9608 37.8192 39.9515 37.8196 39.9417 37.8196H37.9884C37.9786 37.8196 37.9692 37.8192 37.9614 37.8189C37.9645 37.811 37.9684 37.8028 37.9727 37.7942L38.965 35.8097L39.9573 37.7942ZM34.4724 33.5223C34.4724 34.4779 31.2764 35.8663 26.2684 35.8663C21.2605 35.8663 18.0644 34.4779 18.0644 33.5223V25.709C18.0644 24.7534 21.2605 23.365 26.2684 23.365C31.2764 23.365 34.4724 24.7534 34.4724 25.709V33.5223ZM40.757 24.187L38.4158 25.709H38.379V25.7328L35.6444 27.5104V25.709C35.6444 23.4006 30.9279 22.193 26.2684 22.193C21.6093 22.193 16.8925 23.4006 16.8925 25.709V27.5104L11.7802 24.187C11.7568 24.1717 11.7396 24.1577 11.7275 24.1464C11.7396 24.135 11.7568 24.121 11.7802 24.1057L25.7688 15.0126C26.0258 14.8462 26.511 14.8454 26.7677 15.0126L40.757 24.1053C40.7808 24.1206 40.7976 24.1346 40.8098 24.146C40.7976 24.1577 40.7805 24.1717 40.757 24.187Z" fill="black"/>
<path d="M33.2539 31.319C31.5303 30.6091 28.984 30.2017 26.2685 30.2017C23.5537 30.2017 21.0078 30.6091 19.283 31.3194C19.0833 31.4018 18.9884 31.6299 19.0704 31.8296C19.1326 31.9804 19.2783 32.0714 19.4318 32.0714C19.4814 32.0714 19.5318 32.062 19.5803 32.0421C21.2144 31.369 23.6522 30.983 26.2685 30.983C28.8859 30.983 31.3233 31.3686 32.9563 32.0417C33.1567 32.123 33.384 32.0288 33.4665 31.8292C33.5485 31.6295 33.4536 31.4014 33.2539 31.319Z" fill="black"/>
</svg>

<svg xmlns="http://www.w3.org/2000/svg" width="52" height="52" fill="none"><circle cx="26" cy="26" r="25" fill="#fff" stroke="#172343" stroke-width="2"/><path fill="#000" d="m41.396 23.123-13.99-9.093c-.648-.422-1.627-.422-2.276 0l-13.988 9.093c-.385.25-.605.622-.605 1.023 0 .401.22.774.604 1.024l5.751 3.738v4.614c0 2.308 4.717 3.516 9.376 3.516 4.66 0 9.376-1.208 9.376-3.516v-4.614l2.735-1.778v7.508a1.369 1.369 0 0 0-.375.472l-1.08 2.16c-.207.414-.206.847.005 1.187.21.34.596.534 1.06.534h1.953c.463 0 .85-.195 1.06-.534.21-.34.21-.773.004-1.187l-1.08-2.16a1.37 1.37 0 0 0-.375-.472v-8.27l1.845-1.198c.384-.25.604-.623.604-1.024 0-.4-.22-.774-.604-1.023Zm-1.439 14.671.012.025H37.96a.307.307 0 0 1 .012-.025l.992-1.984.992 1.984Zm-5.485-4.272c0 .956-3.196 2.344-8.204 2.344-5.008 0-8.204-1.388-8.204-2.344V25.71c0-.956 3.197-2.344 8.204-2.344 5.008 0 8.204 1.388 8.204 2.344v7.813Zm6.285-9.335-2.341 1.522h-.037v.024l-2.735 1.777V25.71c0-2.308-4.716-3.516-9.376-3.516-4.659 0-9.376 1.208-9.376 3.516v1.801l-5.112-3.323a.39.39 0 0 1-.053-.04.381.381 0 0 1 .053-.041l13.989-9.093c.257-.167.742-.168.999 0l13.989 9.092c.024.016.04.03.053.041a.36.36 0 0 1-.053.041Z"/><path fill="#000" d="M33.254 31.319c-1.724-.71-4.27-1.117-6.985-1.117-2.715 0-5.261.407-6.986 1.117a.39.39 0 0 0 .297.723c1.634-.673 4.072-1.059 6.689-1.059s5.054.386 6.687 1.059a.391.391 0 0 0 .298-.723Z"/></svg>
